X:1
T:Title
L:1/8
M:4/4
I:linebreak $
K:G
V:1 treble nm="Voice"
V:1
"Em" E3 F G3 A | BcBA G2 E2 |"D" D3 E F3 G | ABAG F2 D2 |"Em" E3 F G3 A | BcBA G2 A2 | B2 Bc BAGF | %7
 E2 D2 E4 ::"Em" e2 e2 e2 e2 | dBGA B2 Bc | BAFG"D" A2 AB | AGED"Em" E2 Bd |"Em" e2 e2 gfge | %13
 dBGA B2 GA | B2 Bc BAGF | E2 D2 E4 :| %16
